X:610
T:Reel 610
M:4/4
K:Dmix
L:1/8
FG|A>D (3DCD AGEC|A,DDC DGFD|A>D (3DCD AGEG| (3ABc GF EFGE:|A>d (3dcd edec|AddB c2cG|Add^c defd|cdcG AGEG|Add^c dcdc|Adde fded| (3ABA  (3dcB cABG|AFdB cAGB|Addc AGFG|Addc ABcG|ADDC DEFG|ABcA GECE|Addc ecdc|Addc  (3cBc Gc|AcBc AGFE|DBcA G2FD|
